src/assets/images/img_draw_horse.svg

<svg width="798" height="644" viewBox="0 0 798 644" fill="none" xmlns="http://www.w3.org/2000/svg">
<path fill-rule="evenodd" clip-rule="evenodd" d="M149.502 174.468C143.381 179.801 124.82 183.355 110.405 192.24C95.9914 201.125 85.7231 215.343 78.2199 229.362C70.7167 243.382 65.9777 257.203 58.2764 272.013C50.5761 286.823 39.9133 302.619 30.0402 319.403C20.1671 336.186 11.0846 353.958 6.93725 369.755C2.79083 385.552 3.58143 399.373 5.95041 411.023C8.32034 422.673 12.2696 432.151 18.5878 440.839C24.906 449.528 33.5951 457.426 42.4804 462.756C51.3658 468.088 60.4492 470.853 68.9392 471.84C77.4302 472.828 85.3287 472.037 90.4619 468.483C95.5961 464.929 97.9661 458.611 101.322 450.12C104.68 441.629 109.023 430.966 113.17 422.871C117.317 414.775 121.265 409.246 123.832 408.259C126.399 407.272 127.584 410.826 126.992 417.539C126.4 424.253 124.03 434.126 121.858 443.406C119.686 452.687 117.711 461.375 118.699 465.917C119.686 470.458 123.635 470.853 129.362 470.261C135.088 469.668 142.591 468.089 149.304 463.744C156.018 459.401 161.942 452.292 167.471 443.406C173 434.521 178.134 423.858 181.095 414.182C184.058 404.508 184.848 395.818 187.612 389.303C190.376 382.787 195.115 378.443 201.039 372.914C206.963 367.385 214.072 360.671 221.772 354.945C229.472 349.219 237.766 344.48 246.651 341.122C255.537 337.767 265.014 335.792 274.098 335.397C283.181 335.002 291.869 336.186 300.755 338.359C309.64 340.531 318.724 343.69 327.412 350.009C336.1 356.328 344.393 365.805 350.909 374.099C357.425 382.392 362.164 389.5 365.915 399.966C369.667 410.431 372.432 424.253 374.209 438.469C375.987 452.687 376.776 467.298 374.604 483.885C372.432 500.471 367.298 519.033 362.559 534.434C357.82 549.836 353.476 562.078 351.501 573.136C349.527 584.194 349.922 594.066 352.094 601.965C354.266 609.863 358.215 615.787 364.336 621.316C370.457 626.844 378.751 631.979 386.056 635.137C393.362 638.297 399.681 639.482 465.04 639.876C530.398 640.271 654.797 639.877 719.76 639.877C784.724 639.877 790.252 640.271 792.622 638.297C794.992 636.322 794.202 631.979 791.042 625.858C787.883 619.736 782.355 611.838 777.418 603.544C772.482 595.251 768.137 586.563 763.991 581.824C759.844 577.085 755.895 576.295 705.148 575.308C654.402 574.321 556.858 573.136 506.112 572.544C455.365 571.951 451.416 571.951 449.441 569.384C447.466 566.817 447.466 561.684 454.18 551.021C460.893 540.358 474.32 524.167 487.352 510.147C500.384 496.127 513.022 484.28 522.302 471.247C531.583 458.216 537.506 443.999 542.245 428.202C546.985 412.405 550.539 395.029 550.934 373.703C551.329 352.379 548.565 327.103 543.233 303.408C537.902 279.714 530.003 257.599 519.736 239.433C509.467 221.266 496.83 207.049 481.428 194.61C466.027 182.17 447.861 171.507 427.523 163.411C407.184 155.315 384.675 149.787 364.139 146.035C343.603 142.283 325.042 140.308 310.233 140.308C295.423 140.308 284.366 142.283 278.047 141.296C271.729 140.308 270.149 136.359 270.544 132.015C270.938 127.671 273.308 122.932 278.442 117.799C283.577 112.665 291.474 107.136 300.359 99.6318C309.246 92.1287 319.119 82.6509 327.016 72.9749C334.915 63.2999 340.839 53.4268 344.196 44.3443C347.552 35.2609 348.343 26.968 346.96 20.6489C345.578 14.3307 342.024 9.98612 336.889 7.22184C331.755 4.45756 325.042 3.2726 314.577 4.45756C304.112 5.64252 289.895 9.19646 276.862 16.1081C263.83 23.0188 251.983 33.2863 240.925 44.7396C229.868 56.1911 219.6 68.8295 211.306 78.5044C203.013 88.1794 196.694 94.8929 189.388 100.027C182.083 105.161 173.789 108.715 163.719 110.69C153.649 112.665 141.802 113.06 129.757 113.454C117.711 113.849 105.469 114.245 98.7557 116.811C92.0422 119.378 90.8573 124.117 89.0808 131.226C87.3033 138.335 84.9333 147.812 83.1559 154.723C81.3794 161.634 80.1945 165.978 85.3277 167.953C90.462 169.928 101.915 169.532 112.578 166.965C123.24 164.398 133.113 159.659 141.209 160.844C149.305 162.029 155.623 169.137 149.502 174.468V174.468Z" stroke="#2B2A29" stroke-width="7" stroke-miterlimit="22.9256"/>
<path fill-rule="evenodd" clip-rule="evenodd" d="M344.649 175.29C433.601 175.29 505.709 247.399 505.709 336.349C505.709 400.401 466.486 456.567 412.345 482.519C371.114 502.28 494.695 371.717 414.696 286.861C322.301 188.856 189.288 275.756 214.788 241.063C244.102 201.177 291.353 175.29 344.649 175.29V175.29Z" stroke="#2B2A29" stroke-width="7" stroke-miterlimit="22.9256"/>
<path d="M285.456 83.3567C312.752 60.8045 330.741 37.5123 325.635 31.332C320.529 25.1517 294.261 38.4237 266.965 60.9758C239.668 83.528 221.679 106.82 226.786 113C231.892 119.181 258.159 105.909 285.456 83.3567Z" stroke="#2B2A29" stroke-width="7" stroke-miterlimit="22.9256"/>
<path d="M36.8244 430.977C42.6116 432.066 49.1181 423.306 51.3572 411.41C53.5962 399.514 50.7198 388.988 44.9327 387.899C39.1455 386.809 32.639 395.57 30.3999 407.466C28.1609 419.361 31.0372 429.888 36.8244 430.977Z" stroke="#2B2A29" stroke-width="7" stroke-miterlimit="22.9256"/>
<path d="M210.517 316.046C211.702 325.919 212.887 335.792 211.306 345.27C209.727 354.748 205.382 363.831 201.039 372.914" stroke="#2B2A29" stroke-width="7" stroke-miterlimit="22.9256"/>
<path d="M417.458 620.526H660.721" stroke="#2B2A29" stroke-width="7" stroke-miterlimit="22.9256"/>
<path d="M706.926 639.881C700.607 631.849 694.288 623.819 690.339 617.828C686.39 611.838 684.811 607.889 686.982 605.914C689.154 603.939 695.078 603.939 704.556 609.931C714.034 615.922 727.066 627.906 740.096 639.888" stroke="#2B2A29" stroke-width="7" stroke-miterlimit="22.9256"/>
<path d="M119.291 224.821C112.578 248.91 105.864 273 101.52 287.809C97.1755 302.619 95.2019 308.147 97.9662 307.95C100.73 307.753 108.234 301.829 119.489 293.93C130.744 286.032 145.751 276.16 155.426 266.682C165.101 257.203 169.446 248.121 170.827 239.037C172.21 229.954 170.631 220.871 165.3 215.935C159.967 210.998 150.885 210.209 141.801 209.419" stroke="#2B2A29" stroke-width="7" stroke-miterlimit="22.9256"/>
<path d="M119.291 224.821C121.439 234.027 123.586 243.234 129.695 246.405C135.804 249.577 145.874 246.714 150.86 240.691C155.846 234.668 155.747 225.487 153.39 219.749C151.033 214.01 146.417 211.714 141.801 209.419" stroke="#2B2A29" stroke-width="7" stroke-miterlimit="22.9256"/>
<path d="M440.665 378.49L471.238 435.012" stroke="#2B2A29" stroke-width="7" stroke-miterlimit="22.9256"/>
<path d="M440.436 336.92L503.734 361.131" stroke="#2B2A29" stroke-width="7" stroke-miterlimit="22.9256"/>
<path d="M420.149 293.096L498.903 289.876" stroke="#2B2A29" stroke-width="7" stroke-miterlimit="22.9256"/>
<path d="M396.305 270.077L468.111 232.916" stroke="#2B2A29" stroke-width="7" stroke-miterlimit="22.9256"/>
<path d="M362.024 250.127L420.539 194.254" stroke="#2B2A29" stroke-width="7" stroke-miterlimit="22.9256"/>
<path d="M315.142 239.053L357.348 175.783" stroke="#2B2A29" stroke-width="7" stroke-miterlimit="22.9256"/>
<path d="M261.661 241.457L290.281 184.697" stroke="#2B2A29" stroke-width="7" stroke-miterlimit="22.9256"/>
<path d="M439.692 465.921L428.026 424.006" stroke="#2B2A29" stroke-width="7" stroke-miterlimit="22.9256"/>
<path d="M242.86 211.527L237.097 246.079" stroke="#2B2A29" stroke-width="7" stroke-miterlimit="22.9256"/>
<path d="M534 270L764 582" stroke="#2B2A29" stroke-width="7" stroke-miterlimit="22.9256"/>
</svg>

<svg xmlns="http://www.w3.org/2000/svg" width="798" height="644" fill="none"><path stroke="#2B2A29" stroke-miterlimit="22.926" stroke-width="7" d="M149.502 174.468c-6.121 5.333-24.682 8.887-39.097 17.772-14.414 8.885-24.682 23.103-32.185 37.122-7.503 14.02-12.242 27.841-19.944 42.651-7.7 14.81-18.363 30.606-28.236 47.39-9.873 16.783-18.955 34.555-23.103 50.352-4.146 15.797-3.356 29.618-.987 41.268 2.37 11.65 6.32 21.128 12.638 29.816 6.318 8.689 15.007 16.587 23.892 21.917 8.886 5.332 17.97 8.097 26.46 9.084 8.49.988 16.389.197 21.522-3.357 5.134-3.554 7.504-9.872 10.86-18.363 3.358-8.491 7.701-19.154 11.848-27.249 4.147-8.096 8.095-13.625 10.662-14.612 2.567-.987 3.752 2.567 3.16 9.28-.592 6.714-2.962 16.587-5.134 25.867-2.172 9.281-4.147 17.969-3.159 22.511.987 4.541 4.936 4.936 10.663 4.344 5.726-.593 13.229-2.172 19.942-6.517 6.714-4.343 12.638-11.452 18.167-20.338 5.529-8.885 10.663-19.548 13.624-29.224 2.963-9.674 3.753-18.364 6.517-24.879 2.764-6.516 7.503-10.86 13.427-16.389 5.924-5.529 13.033-12.243 20.733-17.969 7.7-5.726 15.994-10.465 24.879-13.823 8.886-3.355 18.363-5.33 27.447-5.725 9.083-.395 17.771.789 26.657 2.962 8.885 2.172 17.969 5.331 26.657 11.65 8.688 6.319 16.981 15.796 23.497 24.09 6.516 8.293 11.255 15.401 15.006 25.867 3.752 10.465 6.517 24.287 8.294 38.503 1.778 14.218 2.567 28.829.395 45.416-2.172 16.586-7.306 35.148-12.045 50.549-4.739 15.402-9.083 27.644-11.058 38.702-1.974 11.058-1.579 20.93.593 28.829 2.172 7.898 6.121 13.822 12.242 19.351 6.121 5.528 14.415 10.663 21.72 13.821 7.306 3.16 13.625 4.345 78.984 4.739 65.358.395 189.757.001 254.72.001 64.964 0 70.492.394 72.862-1.58 2.37-1.975 1.58-6.318-1.58-12.439-3.159-6.122-8.687-14.02-13.624-22.314-4.936-8.293-9.281-16.981-13.427-21.72-4.147-4.739-8.096-5.529-58.843-6.516-50.746-.987-148.29-2.172-199.036-2.764-50.747-.593-54.696-.593-56.671-3.16-1.975-2.567-1.975-7.7 4.739-18.363 6.713-10.663 20.14-26.854 33.172-40.874 13.032-14.02 25.67-25.867 34.95-38.9 9.281-13.031 15.204-27.248 19.943-43.045 4.74-15.797 8.294-33.173 8.689-54.499.395-21.324-2.369-46.6-7.701-70.295-5.331-23.694-13.23-45.809-23.497-63.975-10.269-18.167-22.906-32.384-38.308-44.823-15.401-12.44-33.567-23.103-53.905-31.199-20.339-8.096-42.848-13.624-63.384-17.376-20.536-3.752-39.097-5.727-53.906-5.727-14.81 0-25.867 1.975-32.186.988-6.318-.988-7.898-4.937-7.503-9.281.394-4.344 2.764-9.083 7.898-14.216 5.135-5.134 13.032-10.663 21.917-18.167 8.887-7.503 18.76-16.981 26.657-26.657 7.899-9.675 13.823-19.548 17.18-28.63 3.356-9.084 4.147-17.377 2.764-23.696-1.382-6.318-4.936-10.663-10.071-13.427-5.134-2.764-11.847-3.95-22.312-2.764-10.465 1.185-24.682 4.738-37.715 11.65-13.032 6.91-24.879 17.178-35.937 28.632-11.057 11.451-21.325 24.09-29.619 33.764-8.293 9.675-14.612 16.389-21.918 21.523-7.305 5.134-15.599 8.688-25.669 10.663-10.07 1.975-21.917 2.37-33.962 2.764-12.046.395-24.288.791-31.001 3.357-6.714 2.567-7.899 7.306-9.675 14.415-1.778 7.109-4.148 16.586-5.925 23.497-1.777 6.911-2.962 11.255 2.172 13.23 5.134 1.975 16.587 1.579 27.25-.988 10.662-2.567 20.535-7.306 28.631-6.121 8.096 1.185 14.414 8.293 8.293 13.624Z" clip-rule="evenodd"/><path stroke="#2B2A29" stroke-miterlimit="22.926" stroke-width="7" d="M344.649 175.29c88.952 0 161.06 72.109 161.06 161.059 0 64.052-39.223 120.218-93.364 146.17-41.231 19.761 82.35-110.802 2.351-195.658-92.395-98.005-225.408-11.105-199.908-45.798 29.314-39.886 76.565-65.773 129.861-65.773Z" clip-rule="evenodd"/><path stroke="#2B2A29" stroke-miterlimit="22.926" stroke-width="7" d="M285.456 83.357c27.296-22.553 45.285-45.845 40.179-52.025-5.106-6.18-31.374 7.092-58.67 29.644-27.297 22.552-45.286 45.844-40.179 52.024 5.106 6.181 31.373-7.091 58.67-29.643ZM36.824 430.977c5.788 1.089 12.294-7.671 14.533-19.567 2.24-11.896-.637-22.422-6.424-23.511-5.788-1.09-12.294 7.671-14.533 19.567-2.24 11.895.637 22.422 6.424 23.511ZM210.517 316.046c1.185 9.873 2.37 19.746.789 29.224-1.579 9.478-5.924 18.561-10.267 27.644M417.458 620.526h243.263M706.926 639.881c-6.319-8.032-12.638-16.062-16.587-22.053-3.949-5.99-5.528-9.939-3.357-11.914 2.172-1.975 8.096-1.975 17.574 4.017 9.478 5.991 22.51 17.975 35.54 29.957M119.291 224.821c-6.713 24.089-13.427 48.179-17.771 62.988-4.344 14.81-6.318 20.338-3.554 20.141 2.764-.197 10.268-6.121 21.523-14.02 11.255-7.898 26.262-17.77 35.937-27.248 9.675-9.479 14.02-18.561 15.401-27.645 1.383-9.083-.196-18.166-5.527-23.102-5.333-4.937-14.415-5.726-23.499-6.516"/><path stroke="#2B2A29" stroke-miterlimit="22.926" stroke-width="7" d="M119.291 224.821c2.148 9.206 4.295 18.413 10.404 21.584 6.109 3.172 16.179.309 21.165-5.714 4.986-6.023 4.887-15.204 2.53-20.942-2.357-5.739-6.973-8.035-11.589-10.33M440.665 378.49l30.573 56.522M440.436 336.92l63.298 24.211M420.149 293.096l78.754-3.22M396.305 270.077l71.806-37.161M362.024 250.127l58.515-55.873M315.142 239.053l42.206-63.27M261.661 241.457l28.62-56.76M439.692 465.921l-11.666-41.915M242.86 211.527l-5.763 34.552M534 270l230 312"/></svg>
